X:0
T:The Unknown Warrior
Z:Jack Campin <http://www.campin.me.uk/> version 1.0 September 2001
C:Pipe Major George S. McLennan
S:Gordon Highlanders Pipe Music Collection volume I
B:NLS Mus.D.s.19
R:Slow Air
M:6/8
L:1/8
Q:3/8=32
N:uses a nonstandard ABC feature to represent the cadence gracenote in bar 16
K:Hp
{g}e|  {d}c>Bc {GdG}e2c      |     {g}B>{d}c{e}B   {G}A2{d}c|\
       {g}e>ce      f2e      |     {g}e>c{e}B    {GdG}c2e   |
     {gfg}f>ef  {ag}a2c      |     {g}e>ce            f2A   |\
     {gcd}c>Bc {GdG}e2c      |[1 {gcd}d>c{G}A    {GdG}B2   :|\
                              [2   {g}B>{d}c{e}B   {G}A2   ||
{d}c|  {g}e>c{e}B {GdG}c2{g}e|     {d}c>Bc         {G}A3    |\
      {ag}a2e       {g}f2c   |     {g}e>B{GdG}c       e3    |
    {fege}f>ef      {g}e2c   |     {g}B>{G}A{g}B {GdG}c3    |\
    {ge4d}c>Bc    {GdG}e2c   |[1 {gcd}c>B{G}A    {GdG}B2   :|\
                              [2   {g}B>{d}c{e}B   {G}A2   |]
